X:1
T:Title
%%score { ( 1 3 ) | ( 2 4 ) }
L:1/8
Q:1/4=94
M:4/4
K:C
V:1 treble nm="Grand Piano"
V:3 treble 
V:2 bass 
V:4 bass 
V:1
 z4 z EE[DF] | [EG]3 [EG] [D^F][EG] [Ec]>[Ed] | [Fc]2 [FB]2- [FB]DDE | F3 G BA [B,FG]>[B,FA] | %4
 [CEG]4 z [G,CE][G,CE][G,DF] | [CEG]3 [CEG] [A,_E^F][G,=EG] [Ec]>[Ge] | %6
 [^Fe]2 [Fd]2- [Fd][FA][FB]c | G3 c cB [B,FA]>[FB] |[M:5/8] [Ec]- [Ec]3 z |[M:3/8] cBc | %10
[M:4/4] d6 z2 | c6 z2 | [Ec]3 [CE] c2 B2 | B2 [A,CA]2- [A,CA]AAG | d6 z2 | e6 z2 | %16
 G4- GABc[Q:1/4=93][Q:1/4=91][Q:1/4=90][Q:1/4=88][Q:1/4=87][Q:1/4=86][Q:1/4=84][Q:1/4=83][Q:1/4=82][Q:1/4=80][Q:1/4=79][Q:1/4=77][Q:1/4=76][Q:1/4=75][Q:1/4=73][Q:1/4=72] | %17
 B4 z4 |] %18
V:2
 z4 z [C,G,C][C,G,C][C,G,] | [C,C]3 [C,C] [C,A,][C,G,] [C,G,]>[C,G,] | %2
 [D,G,]2 [D,G,]2- [D,G,][G,B,][G,B,][K:treble][G,C] | %3
 [G,B,D]3 [G,B,E] [G,DG][G,CF][K:bass] G,,>G,, | C,4 z C,C,C, | C,3 C, C,C, [C,G,]>[C,C] | %6
 [D,C]2 [D,A,]2- [D,A,][D,C][D,B,][^F,A,D] | [G,CE]3 [G,CE] [G,DF][G,DF][K:bass] G,,>[G,,G,] | %8
[M:5/8] [C,G,]- [C,G,]3 z |[M:3/8][K:treble] EDE |[M:4/4] F6 z2 | E6[K:bass] z2 | %12
 [A,,A,]3 [A,,A,] [E,A,E]2 [E,^G,D]2 | [E,^G,D]2 A,,2- A,,[K:treble]CCB, | %14
 F6[K:bass] z2[K:treble] | G6[K:bass] z2 | [G,CE]4- [G,CE][G,CE][G,DF][A,CF] | %17
 [G,DF]2[K:bass] z D C,4 |] %18
V:3
 x8 | x8 | x8 | x8 | x8 | x8 | x8 | x8 |[M:5/8] x5 |[M:3/8] x3 |[M:4/4] z B,B,B, B,edG | %11
 z G,G,G, G,2 [Ec]2 | x8 | x8 | z B,B,B, B,cBc | z CCC C2 c2 | x8 | z2 [EG]F [CEc]4 |] %18
V:4
 x8 | x8 | x7[K:treble] x | x6[K:bass] x2 | x8 | x8 | x8 | x6[K:bass] x2 |[M:5/8] x5 | %9
[M:3/8][K:treble] x3 |[M:4/4] z G,G,G, G,GFF | z[K:bass] C,C,C, C,2 [C,G,]2 | x8 | %13
 x5[K:treble] x3 | z G,[K:bass]G,G, G,ED[K:treble]E | z[K:bass] C,C,C, C,2 [^F,A,_E]2 | x8 | %17
 z2[K:bass] G,,2 z4 |] %18

